public/img/benefits/design.svg

<svg width="50" height="50" viewBox="0 0 50 50" fill="none" xmlns="http://www.w3.org/2000/svg">
<path d="M44.5312 0H5.46875C2.50713 0 0.0976562 2.40947 0.0976562 5.37109V38.6719C0.0976562 41.6335 2.50713 44.043 5.46875 44.043H5.95703V48.5352C5.95703 49.3441 6.61289 50 7.42188 50C8.23086 50 8.88672 49.3441 8.88672 48.5352V23.5352H20.6055V26.4648H16.2109C15.402 26.4648 14.7461 27.1207 14.7461 27.9297C14.7461 28.7387 15.402 29.3945 16.2109 29.3945H20.6055V32.3242H13.2812C12.4723 32.3242 11.8164 32.9801 11.8164 33.7891C11.8164 34.598 12.4723 35.2539 13.2812 35.2539H20.6055V38.1836H16.2109C15.402 38.1836 14.7461 38.8395 14.7461 39.6484C14.7461 40.4574 15.402 41.1133 16.2109 41.1133H20.6055V44.043H13.2812C12.4723 44.043 11.8164 44.6988 11.8164 45.5078C11.8164 46.3168 12.4723 46.9727 13.2812 46.9727H20.6055V48.5352C20.6055 49.3441 21.2613 50 22.0703 50C22.8793 50 23.5352 49.3441 23.5352 48.5352V44.043H29.3945V48.5352C29.3945 49.3441 30.0504 50 30.8594 50C31.6684 50 32.3242 49.3441 32.3242 48.5352V32.3242H35.2539V48.5352C35.2539 49.3441 35.9098 50 36.7188 50C37.5277 50 38.1836 49.3441 38.1836 48.5352V32.3242H41.1133V48.5352C41.1133 49.3441 41.7691 50 42.5781 50C43.3871 50 44.043 49.3441 44.043 48.5352V44.043H44.5312C47.4929 44.043 49.9023 41.6335 49.9023 38.6719V5.37109C49.9023 2.40947 47.4929 0 44.5312 0ZM5.46875 2.92969H44.5312C45.8774 2.92969 46.9727 4.0249 46.9727 5.37109V11.8164H3.02734V5.37109C3.02734 4.0249 4.12256 2.92969 5.46875 2.92969ZM32.7353 29.3945L36.7188 24.4152L40.7022 29.3945H32.7353ZM44.5312 41.1133H44.043V29.3945C44.043 29.0619 43.9298 28.7392 43.722 28.4795L37.8626 21.1553C37.2768 20.4229 36.1611 20.4226 35.5749 21.1553L29.7155 28.4795C29.5077 28.7392 29.3945 29.0619 29.3945 29.3945V41.1133H23.5352V22.0703C23.5352 21.2613 22.8793 20.6055 22.0703 20.6055H7.42188C6.61289 20.6055 5.95703 21.2613 5.95703 22.0703V41.1133H5.46875C4.12256 41.1133 3.02734 40.0181 3.02734 38.6719V14.7461H46.9727V38.6719C46.9727 40.0181 45.8774 41.1133 44.5312 41.1133Z" fill="#61594D"/>
<path d="M36.7188 8.88672C37.5278 8.88672 38.1836 8.23089 38.1836 7.42188C38.1836 6.61286 37.5278 5.95703 36.7188 5.95703C35.9097 5.95703 35.2539 6.61286 35.2539 7.42188C35.2539 8.23089 35.9097 8.88672 36.7188 8.88672Z" fill="#61594D"/>
<path d="M42.5781 8.88672C43.3871 8.88672 44.043 8.23089 44.043 7.42188C44.043 6.61286 43.3871 5.95703 42.5781 5.95703C41.7691 5.95703 41.1133 6.61286 41.1133 7.42188C41.1133 8.23089 41.7691 8.88672 42.5781 8.88672Z" fill="#61594D"/>
<path d="M30.8594 8.88672C31.6684 8.88672 32.3242 8.23089 32.3242 7.42188C32.3242 6.61286 31.6684 5.95703 30.8594 5.95703C30.0504 5.95703 29.3945 6.61286 29.3945 7.42188C29.3945 8.23089 30.0504 8.88672 30.8594 8.88672Z" fill="#61594D"/>
</svg>

<svg width="50" height="50" fill="none" xmlns="http://www.w3.org/2000/svg"><path d="M44.531 0H5.47A5.377 5.377 0 00.098 5.371v33.3a5.377 5.377 0 005.37 5.372h.489v4.492a1.465 1.465 0 002.93 0v-25h11.718v2.93h-4.394a1.465 1.465 0 000 2.93h4.395v2.93H13.28a1.465 1.465 0 000 2.929h7.324v2.93H16.21a1.465 1.465 0 000 2.93h4.395v2.929H13.28a1.465 1.465 0 000 2.93h7.324v1.562a1.465 1.465 0 002.93 0v-4.492h5.86v4.492a1.465 1.465 0 002.93 0v-16.21h2.929v16.21a1.465 1.465 0 002.93 0v-16.21h2.93v16.21a1.465 1.465 0 002.929 0v-4.492h.488a5.377 5.377 0 005.371-5.371v-33.3A5.377 5.377 0 0044.532 0zM5.47 2.93h39.06a2.444 2.444 0 012.442 2.441v6.445H3.027V5.371A2.444 2.444 0 015.47 2.93zm27.266 26.465l3.984-4.98 3.983 4.98h-7.967zm11.796 11.718h-.488V29.395c0-.333-.113-.656-.321-.915l-5.86-7.325a1.465 1.465 0 00-2.287 0l-5.86 7.325c-.207.26-.32.582-.32.915v11.718h-5.86V22.07c0-.809-.656-1.465-1.465-1.465H7.422c-.81 0-1.465.656-1.465 1.465v19.043h-.488a2.444 2.444 0 01-2.442-2.441V14.746h43.946v23.926a2.444 2.444 0 01-2.442 2.441z" fill="#61594D"/><path d="M36.719 8.887a1.465 1.465 0 100-2.93 1.465 1.465 0 000 2.93zm5.859 0a1.465 1.465 0 100-2.93 1.465 1.465 0 000 2.93zm-11.718 0a1.465 1.465 0 100-2.93 1.465 1.465 0 000 2.93z" fill="#61594D"/></svg>
